public/images/icon_facebook.svg

<svg viewBox="0 0 448 512" xmlns="http://www.w3.org/2000/svg"><path d="m448 80v352c0 26.5-21.5 48-48 48h-85.3v-177.2h60.6l8.7-67.6h-69.3v-43.2c0-19.6 5.4-32.9 33.5-32.9h35.8v-60.4c-6.2-.8-27.4-2.7-52.2-2.7-51.6 0-87 31.5-87 89.4v49.9h-60.8v67.6h60.9v177.1h-196.9c-26.5 0-48-21.5-48-48v-352c0-26.5 21.5-48 48-48h352c26.5 0 48 21.5 48 48z" fill="#eceff4"/></svg>

<svg aria-hidden="true" data-prefix="fab" data-icon="facebook-square" class="svg-inline--fa fa-facebook-square fa-w-14" role="img" xmlns="http://www.w3.org/2000/svg" viewBox="0 0 448 512"><path fill="#eceff4" d="M448 80v352c0 26.5-21.5 48-48 48h-85.3V302.8h60.6l8.7-67.6h-69.3V192c0-19.6 5.4-32.9 33.5-32.9H384V98.7c-6.2-.8-27.4-2.7-52.2-2.7-51.6 0-87 31.5-87 89.4v49.9H184v67.6h60.9V480H48c-26.5 0-48-21.5-48-48V80c0-26.5 21.5-48 48-48h352c26.5 0 48 21.5 48 48z"></path></svg>
